X: 38638
T: Stormless Isle, The
R: jig
M: 6/8
K: Bminor
zBF zEE|DEF E2D|EFF FAB|edB AFA|
zBF zEE|DEF E2D|EFF FAB|AFE DB2:|
zFA Bde|c2 A FEF|A2 F EDF|ED(E E)DE|
FAB ded|c2 A FEF|AF(B B)AF|ED(F F)DE|
zFA Bde|c2 A FEF|A2 F EDF|ED(E E)FA|
BAF E2 F|AFE DEF|AFB AFE|dBe dAF:|
FB/B/B BAF|Bd/d/d dBA|f2 d edB|AdB AFE|
FB/B/B BAF|zcA FEF|AF(B B)AF|cA(B B2)A|
FB/B/B BAF|Bd/d/d dBA|fbf edB|ed(e e)de|
fbf e2 d|eae fdA|BB/B/B dBA|ED(B B3)|

